libs/ui/packages/crypto-icons/src/svg/EQZ.svg

<svg width="24" height="24" viewBox="0 0 24 24" fill="none" xmlns="http://www.w3.org/2000/svg">
<path fill-rule="evenodd" clip-rule="evenodd" d="M12.0001 21C7.0295 21 3 16.9705 3 11.9999C3 7.02935 7.0295 3 12.0001 3C16.9706 3 21.0002 7.02935 21.0002 11.9999C21.0002 16.9705 16.9706 21 12.0001 21ZM7.13861 9.03843C7.13861 9.56692 9.31293 9.99525 11.995 9.99525C14.677 9.99525 16.8513 9.56692 16.8513 9.03843C16.8513 8.50994 14.677 8.08146 11.995 8.08146C9.31293 8.08146 7.13861 8.50994 7.13861 9.03843ZM11.995 12.911C9.31293 12.911 7.13861 12.4827 7.13861 11.9542C7.13861 11.4257 9.31293 10.9972 11.995 10.9972C14.677 10.9972 16.8513 11.4257 16.8513 11.9542C16.8513 12.4827 14.677 12.911 11.995 12.911ZM7.13867 14.9633C7.13867 15.4918 9.31299 15.9202 11.9951 15.9202C14.6771 15.9202 16.8514 15.4918 16.8514 14.9633C16.8514 14.4349 14.6771 14.0064 11.9951 14.0064C9.31299 14.0064 7.13867 14.4349 7.13867 14.9633Z" fill="#3A4AFF"/>
</svg>

<svg xmlns="http://www.w3.org/2000/svg" width="24" height="24" viewBox="0 0 24 24" fill="none"><path fill="#3a4aff" fill-rule="evenodd" d="M12 21a9 9 0 1 1 0-18 9 9 0 0 1 0 18M7.14 9.038c0 .529 2.174.957 4.856.957s4.856-.428 4.856-.957-2.174-.957-4.856-.957-4.856.429-4.856.957m4.856 3.873c-2.682 0-4.856-.428-4.856-.957s2.174-.957 4.856-.957 4.856.429 4.856.957c0 .529-2.174.957-4.856.957M7.14 14.963c0 .529 2.174.957 4.856.957s4.856-.428 4.856-.957-2.174-.957-4.856-.957-4.856.429-4.856.957" clip-rule="evenodd"/></svg>
